; generated by PrusaSlicer 2.3.1+linux-x64 on 2021-05-31 at 21:28:41 UTC


;
;

;
;
; 

; external perimeters extrusion width = 0.45mm
; perimeters extrusion width = 0.45mm
; infill extrusion width = 0.45mm
; solid infill extrusion width = 0.45mm
; top infill extrusion width = 0.40mm
; first layer extrusion width = 0.42mm

M73 P0 R34
M201 X1250 Y1250 Z400 E5000 ; sets maximum accelerations, mm/sec^2
M203 X180 Y180 Z12 E80 ; sets maximum feedrates, mm/sec
M204 P1250 R1250 T1250 ; sets acceleration (P, T) and retract acceleration (R), mm/sec^2
M205 X8.00 Y8.00 Z2.00 E10.00 ; sets the jerk limits, mm/sec
M205 S0 T0 ; sets the minimum extruding and travel feed rate, mm/sec
M107
;TYPE:Custom
G90 ; use absolute coordinates
M83 ; extruder relative mode
M104 S170 ; set extruder temp for bed leveling
M140 S60 ; set bed temp
M109 R170 ; wait for bed leveling temp
M190 S60 ; wait for bed temp
G28 ; home all without mesh bed level
G29 ; mesh bed leveling 
M104 S215 ; set extruder temp
G92 E0.0
G1 Y-2.0 X179 F2400
G1 Z3 F720
M109 S215 ; wait for extruder temp

; intro line
G1 X170 F1000
G1 Z0.2 F720
G1 X110.0 E8.0 F900
G1 X40.0 E10.0 F700
G92 E0.0

M221 S95 ; set flow
G21 ; set units to millimeters
G90 ; use absolute coordinates
M83 ; use relative distances for extrusion
M900 K0.2 ; Filament gcode LA 1.5
; ; Filament gcode LA 1.0
;LAYER_CHANGE
;Z:0.2
;HEIGHT:0.2
;BEFORE_LAYER_CHANGE
G92 E0.0
;0.2


G1 E-3.20000 F4200.000
G1 Z0.200 F9000.000
;AFTER_LAYER_CHANGE
;0.2
G1 Z0.400
G1 X70.749 Y59.359
G1 Z0.200
G1 E3.20000 F2400.000
M204 S800
;TYPE:Skirt
;WIDTH:0.42
G1 F1200.000
G1 X72.065 Y58.601 E0.04761
G1 X72.849 Y58.315 E0.02618
G1 X74.486 Y58.066 E0.05190
G1 X125.404 Y58.063 E1.59650
G1 X126.268 Y58.124 E0.02716
G1 X127.441 Y58.399 E0.03780
G1 X128.834 Y59.074 E0.04851
G1 X129.412 Y59.504 E0.02260
G1 X130.475 Y60.583 E0.04750
G1 X131.074 Y61.530 E0.03513
G1 X131.508 Y62.620 E0.03679
G1 X131.772 Y64.288 E0.05293
G1 X131.777 Y135.598 E2.23589
M73 P1 R34
G1 X131.468 Y137.520 E0.06102
G1 X131.069 Y138.480 E0.03262
G1 X130.623 Y139.217 E0.02700
G1 X129.383 Y140.525 E0.05651
G1 X128.780 Y140.955 E0.02322
G1 X127.311 Y141.644 E0.05088
G1 X126.257 Y141.878 E0.03386
G1 X125.464 Y141.936 E0.02492
G1 X74.550 Y141.937 E1.59635
G1 X72.640 Y141.628 E0.06067
G1 X72.120 Y141.427 E0.01750
G1 X70.942 Y140.782 E0.04210
G1 X69.886 Y139.853 E0.04412
G1 X69.260 Y139.018 E0.03271
G1 X68.521 Y137.487 E0.05329
G1 X68.369 Y136.891 E0.01931
G1 X68.223 Y135.607 E0.04050
G1 X68.223 Y64.402 E2.23259
G1 X68.369 Y63.106 E0.04090
G1 X68.531 Y62.483 E0.02019
G1 X69.378 Y60.783 E0.05955
G1 X69.893 Y60.139 E0.02586
G1 X70.705 Y59.400 E0.03442
M204 S1250
; printing object 6x8MLAB_frame.stl id:0 copy 0
G1 E-2.24000 F4200.000
;WIPE_START
G1 F7200.000
G1 X72.065 Y58.601 E-0.87393
G1 X72.130 Y58.578 E-0.03808
;WIPE_END
G1 E-0.04800 F4200.000
G1 Z0.400 F9000.000
G1 X100.190 Y100.190
G1 Z0.200
G1 E3.20000 F2400.000
M204 S800
;TYPE:External perimeter
G1 F1200.000
G1 X107.303 Y100.190 E0.22303
G1 X107.303 Y107.970 E0.24394
G1 X100.190 Y107.970 E0.22303
G1 X100.190 Y100.250 E0.24206
M204 S1250
G1 X100.092 Y99.802 F9000.000
G1 X99.810 Y100.250
M204 S800
G1 F1200.000
G1 X99.810 Y107.970 E0.24206
G1 X92.697 Y107.970 E0.22303
G1 X92.697 Y100.190 E0.24394
G1 X99.810 Y100.190 E0.22303
M204 S1250
G1 X100.195 Y100.141 F9000.000
G1 E-2.24000 F4200.000
;WIPE_START
G1 F7200.000
G1 X99.810 Y101.836 E-0.91200
;WIPE_END
G1 E-0.04800 F4200.000
G1 Z0.400 F9000.000
G1 X92.317 Y100.190
G1 Z0.200
G1 E3.20000 F2400.000
M204 S800
G1 F1200.000
G1 X92.317 Y107.970 E0.24394
G1 X85.203 Y107.970 E0.22304
G1 X85.203 Y100.190 E0.24394
G1 X92.257 Y100.190 E0.22115
M204 S1250
G1 X92.701 Y100.081 F9000.000
G1 E-2.24000 F4200.000
;WIPE_START
G1 F7200.000
G1 X92.269 Y101.836 E-0.91200
;WIPE_END
G1 E-0.04800 F4200.000
G1 Z0.400 F9000.000
G1 X84.823 Y100.190
G1 Z0.200
G1 E3.20000 F2400.000
M204 S800
G1 F1200.000
G1 X84.823 Y107.970 E0.24394
G1 X77.110 Y107.970 E0.24185
G1 X77.110 Y100.190 E0.24394
G1 X84.763 Y100.190 E0.23996
M204 S1250
G1 X85.210 Y100.086 F9000.000
G1 X84.763 Y99.810
M204 S800
G1 F1200.000
G1 X77.110 Y99.810 E0.23996
G1 X77.110 Y92.030 E0.24394
G1 X84.823 Y92.030 E0.24185
G1 X84.823 Y99.810 E0.24394
M204 S1250
M73 P1 R33
G1 X84.866 Y100.197 F9000.000
G1 X85.203 Y99.810
M204 S800
G1 F1200.000
G1 X85.203 Y92.030 E0.24394
G1 X92.317 Y92.030 E0.22304
G1 X92.317 Y99.810 E0.24394
M73 P2 R33
G1 X85.263 Y99.810 E0.22115
M204 S1250
G1 X84.819 Y99.919 F9000.000
G1 E-2.24000 F4200.000
;WIPE_START
G1 F7200.000
G1 X85.251 Y98.164 E-0.91200
;WIPE_END
G1 E-0.04800 F4200.000
G1 Z0.400 F9000.000
G1 X92.697 Y99.810
G1 Z0.200
G1 E3.20000 F2400.000
M204 S800
G1 F1200.000
G1 X92.697 Y92.030 E0.24394
G1 X99.810 Y92.030 E0.22303
G1 X99.810 Y99.810 E0.24394
G1 X92.757 Y99.810 E0.22115
M204 S1250
G1 X92.312 Y99.919 F9000.000
G1 E-2.24000 F4200.000
;WIPE_START
G1 F7200.000
G1 X92.744 Y98.164 E-0.91200
;WIPE_END
G1 E-0.04800 F4200.000
G1 Z0.400 F9000.000
G1 X100.190 Y99.810
G1 Z0.200
G1 E3.20000 F2400.000
M204 S800
G1 F1200.000
G1 X100.190 Y92.030 E0.24394
G1 X107.303 Y92.030 E0.22303
G1 X107.303 Y99.810 E0.24394
G1 X100.250 Y99.810 E0.22115
M204 S1250
G1 X99.805 Y99.919 F9000.000
G1 E-2.24000 F4200.000
;WIPE_START
G1 F7200.000
G1 X100.237 Y98.164 E-0.91200
;WIPE_END
G1 E-0.04800 F4200.000
G1 Z0.400 F9000.000
G1 X107.683 Y99.810
G1 Z0.200
G1 E3.20000 F2400.000
M204 S800
G1 F1200.000
G1 X107.683 Y92.030 E0.24394
G1 X114.797 Y92.030 E0.22304
G1 X114.797 Y99.810 E0.24394
G1 X107.743 Y99.810 E0.22115
M204 S1250
G1 X107.299 Y99.919 F9000.000
G1 E-2.24000 F4200.000
;WIPE_START
G1 F7200.000
G1 X107.731 Y98.164 E-0.91200
;WIPE_END
G1 E-0.04800 F4200.000
G1 Z0.400 F9000.000
G1 X115.177 Y99.810
G1 Z0.200
G1 E3.20000 F2400.000
M204 S800
G1 F1200.000
G1 X115.177 Y92.030 E0.24394
G1 X122.890 Y92.030 E0.24185
G1 X122.890 Y99.810 E0.24394
G1 X115.237 Y99.810 E0.23996
M204 S1250
G1 X114.790 Y99.914 F9000.000
G1 X115.237 Y100.190
M204 S800
G1 F1200.000
G1 X122.890 Y100.190 E0.23996
G1 X122.890 Y107.970 E0.24394
G1 X115.177 Y107.970 E0.24185
G1 X115.177 Y100.190 E0.24394
M204 S1250
G1 X115.134 Y99.803 F9000.000
G1 X114.797 Y100.190
M204 S800
G1 F1200.000
G1 X114.797 Y107.970 E0.24394
G1 X107.683 Y107.970 E0.22304
G1 X107.683 Y100.190 E0.24394
G1 X114.737 Y100.190 E0.22115
M204 S1250
G1 X115.181 Y100.081 F9000.000
G1 E-2.24000 F4200.000
;WIPE_START
G1 F7200.000
G1 X114.749 Y101.836 E-0.91200
;WIPE_END
G1 E-0.04800 F4200.000
G1 Z0.400 F9000.000
G1 X115.177 Y91.650
G1 Z0.200
G1 E3.20000 F2400.000
M204 S800
G1 F1200.000
G1 X115.177 Y83.870 E0.24394
G1 X122.890 Y83.870 E0.24185
G1 X122.890 Y91.650 E0.24394
G1 X115.237 Y91.650 E0.23996
M204 S1250
G1 X114.790 Y91.754 F9000.000
G1 X114.797 Y91.650
M204 S800
G1 F1200.000
G1 X107.683 Y91.650 E0.22304
G1 X107.683 Y83.870 E0.24394
G1 X114.797 Y83.870 E0.22304
G1 X114.797 Y91.590 E0.24206
M204 S1250
G1 X114.894 Y92.038 F9000.000
G1 E-2.24000 F4200.000
;WIPE_START
G1 F7200.000
G1 X113.151 Y91.604 E-0.91200
;WIPE_END
G1 E-0.04800 F4200.000
G1 Z0.400 F9000.000
G1 X107.303 Y91.590
G1 Z0.200
G1 E3.20000 F2400.000
M204 S800
G1 F1200.000
G1 X107.303 Y91.650 E0.00188
G1 X100.190 Y91.650 E0.22303
G1 X100.190 Y83.870 E0.24394
G1 X107.303 Y83.870 E0.22303
G1 X107.303 Y91.530 E0.24017
M204 S1250
G1 X107.361 Y91.606 F9000.000
G1 E-2.24000 F4200.000
;WIPE_START
G1 F7200.000
G1 X107.303 Y91.650 E-0.06650
G1 X105.778 Y91.650 E-0.84550
;WIPE_END
G1 E-0.04800 F4200.000
G1 Z0.400 F9000.000
G1 X99.810 Y91.530
G1 Z0.200
G1 E3.20000 F2400.000
M204 S800
G1 F1200.000
G1 X99.810 Y91.650 E0.00376
G1 X92.697 Y91.650 E0.22303
G1 X92.697 Y83.870 E0.24394
G1 X99.810 Y83.870 E0.22303
G1 X99.810 Y91.470 E0.23829
M204 S1250
G1 X99.926 Y91.562 F9000.000
G1 E-2.24000 F4200.000
;WIPE_START
G1 F7200.000
G1 X99.810 Y91.650 E-0.09975
G1 X98.344 Y91.650 E-0.81225
;WIPE_END
G1 E-0.04800 F4200.000
G1 Z0.400 F9000.000
G1 X92.317 Y91.470
G1 Z0.200
G1 E3.20000 F2400.000
M204 S800
G1 F1200.000
G1 X92.317 Y91.650 E0.00564
G1 X85.203 Y91.650 E0.22304
G1 X85.203 Y83.870 E0.24394
M73 P3 R33
G1 X92.317 Y83.870 E0.22304
G1 X92.317 Y91.410 E0.23641
M204 S1250
G1 X92.490 Y91.519 F9000.000
G1 E-2.24000 F4200.000
;WIPE_START
G1 F7200.000
G1 X92.317 Y91.650 E-0.13300
G1 X90.911 Y91.650 E-0.77900
;WIPE_END
G1 E-0.04800 F4200.000
G1 Z0.400 F9000.000
G1 X77.110 Y83.870
G1 Z0.200
G1 E3.20000 F2400.000
M204 S800
G1 F1200.000
G1 X84.823 Y83.870 E0.24185
G1 X84.823 Y91.650 E0.24394
G1 X77.110 Y91.650 E0.24185
G1 X77.110 Y83.930 E0.24206
M204 S1250
G1 X77.007 Y83.483 F9000.000
G1 X77.110 Y83.490
M204 S800
G1 F1200.000
G1 X77.110 Y75.710 E0.24394
G1 X84.823 Y75.710 E0.24185
G1 X84.823 Y83.490 E0.24394
G1 X77.170 Y83.490 E0.23996
M204 S1250
G1 X76.724 Y83.594 F9000.000
G1 E-2.24000 F4200.000
;WIPE_START
G1 F7200.000
G1 X77.157 Y81.844 E-0.91200
;WIPE_END
G1 E-0.04800 F4200.000
G1 Z0.400 F9000.000
G1 X85.203 Y83.490
G1 Z0.200
G1 E3.20000 F2400.000
M204 S800
G1 F1200.000
G1 X85.203 Y75.710 E0.24394
G1 X92.317 Y75.710 E0.22304
G1 X92.317 Y83.490 E0.24394
G1 X85.263 Y83.490 E0.22115
M204 S1250
G1 X84.819 Y83.599 F9000.000
G1 E-2.24000 F4200.000
;WIPE_START
G1 F7200.000
G1 X85.251 Y81.844 E-0.91200
;WIPE_END
G1 E-0.04800 F4200.000
G1 Z0.400 F9000.000
G1 X92.697 Y83.490
G1 Z0.200
G1 E3.20000 F2400.000
M204 S800
G1 F1200.000
G1 X92.697 Y75.710 E0.24394
G1 X99.810 Y75.710 E0.22303
G1 X99.810 Y83.490 E0.24394
G1 X92.757 Y83.490 E0.22115
M204 S1250
G1 X92.312 Y83.599 F9000.000
G1 E-2.24000 F4200.000
;WIPE_START
G1 F7200.000
G1 X92.744 Y81.844 E-0.91200
;WIPE_END
G1 E-0.04800 F4200.000
G1 Z0.400 F9000.000
G1 X100.190 Y83.490
G1 Z0.200
G1 E3.20000 F2400.000
M204 S800
G1 F1200.000
G1 X100.190 Y75.710 E0.24394
G1 X107.303 Y75.710 E0.22303
G1 X107.303 Y83.490 E0.24394
G1 X100.250 Y83.490 E0.22115
M204 S1250
G1 X99.805 Y83.599 F9000.000
G1 E-2.24000 F4200.000
;WIPE_START
G1 F7200.000
G1 X100.237 Y81.844 E-0.91200
;WIPE_END
G1 E-0.04800 F4200.000
G1 Z0.400 F9000.000
G1 X107.683 Y83.490
G1 Z0.200
G1 E3.20000 F2400.000
M204 S800
G1 F1200.000
G1 X107.683 Y75.710 E0.24394
G1 X114.797 Y75.710 E0.22304
G1 X114.797 Y83.490 E0.24394
G1 X107.743 Y83.490 E0.22115
M204 S1250
G1 X107.299 Y83.599 F9000.000
G1 E-2.24000 F4200.000
;WIPE_START
G1 F7200.000
G1 X107.731 Y81.844 E-0.91200
;WIPE_END
G1 E-0.04800 F4200.000
G1 Z0.400 F9000.000
G1 X115.177 Y83.490
G1 Z0.200
G1 E3.20000 F2400.000
M204 S800
G1 F1200.000
G1 X115.177 Y75.710 E0.24394
G1 X122.890 Y75.710 E0.24185
G1 X122.890 Y83.490 E0.24394
G1 X115.237 Y83.490 E0.23996
M204 S1250
G1 X114.790 Y83.594 F9000.000
G1 E-2.24000 F4200.000
;WIPE_START
G1 F7200.000
G1 X115.224 Y81.844 E-0.91200
;WIPE_END
G1 E-0.04800 F4200.000
G1 Z0.400 F9000.000
G1 X115.237 Y75.330
G1 Z0.200
G1 E3.20000 F2400.000
M204 S800
G1 F1200.000
G1 X115.177 Y75.330 E0.00188
G1 X115.177 Y66.950 E0.26275
G1 X121.501 Y66.955 E0.19829
G1 X122.004 Y66.981 E0.01580
G1 X122.778 Y67.061 E0.02440
G1 X122.859 Y67.816 E0.02379
G1 X122.885 Y68.299 E0.01518
G1 X122.890 Y75.330 E0.22045
G1 X115.297 Y75.330 E0.23809
M204 S1250
G1 X115.220 Y75.388 F9000.000
G1 X114.797 Y75.330
M204 S800
G1 F1200.000
G1 X107.683 Y75.330 E0.22304
G1 X107.683 Y66.950 E0.26275
G1 X114.797 Y66.950 E0.22304
G1 X114.797 Y75.270 E0.26087
M204 S1250
G1 X114.890 Y75.719 F9000.000
G1 E-2.24000 F4200.000
;WIPE_START
G1 F7200.000
G1 X113.151 Y75.284 E-0.91200
;WIPE_END
G1 E-0.04800 F4200.000
G1 Z0.400 F9000.000
G1 X107.303 Y75.270
G1 Z0.200
G1 E3.20000 F2400.000
M204 S800
G1 F1200.000
G1 X107.303 Y75.330 E0.00188
G1 X100.190 Y75.330 E0.22303
G1 X100.190 Y66.950 E0.26275
G1 X107.303 Y66.950 E0.22303
G1 X107.303 Y75.210 E0.25899
M204 S1250
G1 X107.361 Y75.287 F9000.000
G1 E-2.24000 F4200.000
;WIPE_START
M73 P4 R33
G1 F7200.000
G1 X107.303 Y75.330 E-0.06650
G1 X105.778 Y75.330 E-0.84550
;WIPE_END
G1 E-0.04800 F4200.000
G1 Z0.400 F9000.000
G1 X99.810 Y75.210
G1 Z0.200
G1 E3.20000 F2400.000
M204 S800
G1 F1200.000
G1 X99.810 Y75.330 E0.00376
G1 X92.697 Y75.330 E0.22303
G1 X92.697 Y66.950 E0.26275
G1 X99.810 Y66.950 E0.22303
G1 X99.810 Y75.150 E0.25711
M204 S1250
G1 X99.925 Y75.244 F9000.000
G1 E-2.24000 F4200.000
;WIPE_START
G1 F7200.000
G1 X99.810 Y75.330 E-0.09975
G1 X98.344 Y75.330 E-0.81225
;WIPE_END
G1 E-0.04800 F4200.000
G1 Z0.400 F9000.000
G1 X92.317 Y75.150
G1 Z0.200
G1 E3.20000 F2400.000
M204 S800
G1 F1200.000
G1 X92.317 Y75.330 E0.00564
G1 X85.203 Y75.330 E0.22304
G1 X85.203 Y66.950 E0.26275
G1 X92.317 Y66.950 E0.22304
G1 X92.317 Y75.090 E0.25522
M204 S1250
G1 X92.489 Y75.201 F9000.000
G1 E-2.24000 F4200.000
;WIPE_START
G1 F7200.000
G1 X92.317 Y75.330 E-0.13300
G1 X90.911 Y75.330 E-0.77900
;WIPE_END
G1 E-0.04800 F4200.000
G1 Z0.400 F9000.000
G1 X84.823 Y66.950
G1 Z0.200
G1 E3.20000 F2400.000
M204 S800
G1 F1200.000
G1 X84.823 Y75.330 E0.26275
G1 X77.110 Y75.330 E0.24185
G1 X77.115 Y68.299 E0.22045
G1 X77.141 Y67.816 E0.01518
G1 X77.222 Y67.061 E0.02379
G1 X77.996 Y66.981 E0.02440
G1 X78.499 Y66.955 E0.01578
G1 X84.763 Y66.950 E0.19642
M204 S1250
G1 X85.223 Y66.949 F9000.000
G1 E-2.24000 F4200.000
;WIPE_START
G1 F7200.000
G1 X84.775 Y68.596 E-0.91200
;WIPE_END
G1 E-0.04800 F4200.000
G1 Z0.400 F9000.000
G1 X78.511 Y64.440
G1 Z0.200
G1 E3.20000 F2400.000
M204 S800
G1 F1200.000
G1 X77.650 Y65.924 E0.05381
G1 X76.847 Y67.150 E0.04594
G1 X76.555 Y67.795 E0.02220
G1 X75.339 Y67.827 E0.03811
G1 X72.644 Y67.827 E0.08452
G1 X71.793 Y66.334 E0.05387
G1 X71.573 Y65.876 E0.01594
G1 X71.218 Y64.956 E0.03092
G1 X70.920 Y64.440 E0.01869
G1 X71.222 Y63.917 E0.01895
G1 X71.649 Y63.029 E0.03088
G1 X71.902 Y62.590 E0.01589
G1 X72.458 Y61.776 E0.03088
G1 X72.760 Y61.253 E0.01895
G1 X73.364 Y61.253 E0.01895
G1 X74.345 Y61.178 E0.03083
G1 X75.826 Y61.155 E0.04644
G1 X76.461 Y61.155 E0.01993
G1 X76.666 Y61.356 E0.00899
G1 X77.200 Y62.176 E0.03070
G1 X78.481 Y64.388 E0.08015
M204 S1250
G1 X78.819 Y64.696 F9000.000
G1 E-2.24000 F4200.000
;WIPE_START
G1 F7200.000
G1 X77.698 Y65.836 E-0.91200
;WIPE_END
G1 E-0.04800 F4200.000
G1 Z0.400 F9000.000
G1 X76.745 Y68.167
G1 Z0.200
G1 E3.20000 F2400.000
M204 S800
;TYPE:Perimeter
G1 F1200.000
G1 X76.745 Y131.833 E1.99620
G1 X75.344 Y131.796 E0.04392
G1 X72.425 Y131.796 E0.09154
G1 X71.494 Y133.429 E0.05894
G1 X71.503 Y67.154 E2.07800
G1 X71.483 Y66.553 E0.01887
G1 X72.425 Y68.204 E0.05960
G1 X75.344 Y68.204 E0.09154
G1 X76.685 Y68.169 E0.04204
M204 S1250
G1 E-2.24000 F4200.000
;WIPE_START
G1 F7200.000
G1 X76.686 Y69.814 E-0.91200
;WIPE_END
G1 E-0.04800 F4200.000
G1 Z0.400 F9000.000
G1 X77.632 Y66.640
G1 Z0.200
G1 E3.20000 F2400.000
M204 S800
G1 F1200.000
G1 X77.971 Y66.122 E0.01939
G1 X78.947 Y64.440 E0.06098
G1 X77.522 Y61.978 E0.08920
G1 X77.032 Y61.227 E0.02812
G1 X78.052 Y61.256 E0.03199
G1 X121.746 Y61.256 E1.37001
M73 P4 R32
G1 X122.764 Y61.238 E0.03191
G1 X122.999 Y61.218 E0.00740
G1 X122.812 Y61.467 E0.00976
G1 X122.522 Y61.908 E0.01654
G1 X121.053 Y64.439 E0.09177
G1 X122.029 Y66.123 E0.06102
G1 X122.368 Y66.640 E0.01938
G1 X121.511 Y66.578 E0.02694
G1 X114.800 Y66.572 E0.21042
G1 X79.488 Y66.573 E1.10717
M73 P5 R32
G1 X78.488 Y66.578 E0.03136
G1 X77.692 Y66.634 E0.02503
M204 S1250
G1 E-2.24000 F4200.000
;WIPE_START
G1 F7200.000
G1 X77.971 Y66.122 E-0.32276
G1 X78.505 Y65.203 E-0.58924
;WIPE_END
G1 E-0.04800 F4200.000
G1 Z0.400 F9000.000
G1 X121.489 Y64.440
G1 Z0.200
G1 E3.20000 F2400.000
M204 S800
;TYPE:External perimeter
G1 F1200.000
G1 X122.843 Y62.106 E0.08460
G1 X123.120 Y61.684 E0.01582
G1 X123.520 Y61.154 E0.02081
G1 X125.158 Y61.157 E0.05135
G1 X125.657 Y61.171 E0.01567
G1 X126.636 Y61.253 E0.03081
G1 X127.240 Y61.253 E0.01892
G1 X127.542 Y61.776 E0.01895
G1 X128.098 Y62.590 E0.03088
G1 X128.351 Y63.029 E0.01589
G1 X128.778 Y63.917 E0.03088
G1 X129.079 Y64.439 E0.01890
G1 X128.790 Y64.953 E0.01851
G1 X128.637 Y65.417 E0.01532
G1 X128.442 Y65.891 E0.01606
G1 X128.209 Y66.340 E0.01584
G1 X127.356 Y67.827 E0.05377
G1 X124.661 Y67.827 E0.08451
G1 X123.445 Y67.795 E0.03811
G1 X123.153 Y67.150 E0.02220
G1 X122.350 Y65.924 E0.04593
G1 X121.519 Y64.492 E0.05194
M204 S1250
G1 X121.181 Y64.185 F9000.000
G1 E-2.24000 F4200.000
;WIPE_START
G1 F7200.000
